tetrification/src/assets/images/rules.svg

<svg width="551" height="439" viewBox="0 0 551 439" fill="none" xmlns="http://www.w3.org/2000/svg">
<g clip-path="url(#clip0_321_615)">
<path d="M352.541 154.237C353.085 154.486 353.608 154.777 354.105 155.109L403.809 133.894L405.582 120.8L425.443 120.678L424.27 150.712L358.665 168.065C358.527 168.52 358.361 168.967 358.169 169.403C357.22 171.427 355.695 173.126 353.784 174.285C351.873 175.445 349.662 176.015 347.429 175.922C345.196 175.829 343.04 175.079 341.232 173.765C339.423 172.451 338.044 170.632 337.266 168.536C336.488 166.44 336.347 164.162 336.86 161.986C337.373 159.81 338.517 157.835 340.149 156.307C341.781 154.78 343.828 153.769 346.032 153.401C348.237 153.033 350.501 153.325 352.541 154.239L352.541 154.237Z" fill="#A0616A"/>
<path d="M432.666 426.385H419.079L412.616 373.977H432.667L432.666 426.385Z" fill="#A0616A"/>
<path d="M409.375 422.502H435.577V438.995H392.877C392.877 434.619 394.616 430.423 397.71 427.329C400.803 424.234 405 422.496 409.375 422.496V422.502Z" fill="#2F2E41"/>
<path d="M485.503 422.545L471.984 423.875L460.415 372.353L480.37 370.393L485.503 422.545Z" fill="#A0616A"/>
<path d="M461.937 420.967L488.008 418.398L489.625 434.815L447.14 439C446.711 434.646 448.029 430.301 450.804 426.919C453.579 423.537 457.584 421.396 461.937 420.967Z" fill="#2F2E41"/>
<path d="M436.447 65.2117C451.479 65.2117 463.665 53.0249 463.665 37.9916C463.665 22.9584 451.479 10.7715 436.447 10.7715C421.415 10.7715 409.229 22.9584 409.229 37.9916C409.229 53.0249 421.415 65.2117 436.447 65.2117Z" fill="#A0616A"/>
<path d="M416.043 415.784C414.875 415.786 413.744 415.376 412.849 414.626C411.953 413.876 411.352 412.833 411.15 411.683C404.122 372.651 381.132 244.998 380.582 241.459C380.569 241.378 380.563 241.296 380.563 241.214V231.695C380.563 231.348 380.671 231.01 380.873 230.728L383.909 226.478C384.054 226.273 384.243 226.104 384.463 225.984C384.682 225.864 384.927 225.796 385.177 225.785C402.492 224.974 459.186 222.594 461.925 226.017C464.676 229.452 463.698 239.878 463.476 241.932L463.487 242.146L488.96 405.061C489.16 406.36 488.839 407.686 488.068 408.751C487.298 409.816 486.138 410.535 484.842 410.751L468.933 413.372C467.748 413.563 466.534 413.321 465.512 412.692C464.49 412.063 463.728 411.088 463.364 409.944C458.443 394.22 441.944 341.322 436.225 320.853C436.194 320.718 436.114 320.6 436 320.522C435.886 320.443 435.746 320.411 435.609 320.431C435.472 320.451 435.348 320.521 435.261 320.629C435.173 320.736 435.13 320.872 435.138 321.011C435.424 340.523 436.114 390.303 436.358 407.497L436.383 409.349C436.393 410.603 435.933 411.815 435.093 412.746C434.253 413.677 433.095 414.259 431.847 414.377L416.506 415.767C416.352 415.78 416.197 415.786 416.043 415.784Z" fill="#2F2E41"/>
<path d="M419.174 75.9155C414.424 78.7396 411.581 83.9281 409.951 89.2174C406.931 98.9935 405.114 109.101 404.538 119.317L402.814 149.903L381.475 230.996C399.97 246.646 410.637 243.088 435.533 230.288C460.429 217.487 463.273 234.555 463.273 234.555L468.25 165.556L475.363 90.1579C473.766 88.2354 471.959 86.4979 469.975 84.9781C463.401 79.8645 455.752 76.3099 447.605 74.582C439.458 72.8542 431.025 72.9982 422.941 75.0032L419.174 75.9155Z" fill="#AF87F6"/>
<path d="M412.243 170.614C412.817 170.829 413.372 171.088 413.905 171.39L463.053 146.786L463.868 133.458L484.141 132.061L485.227 162.442L419.55 184.166C419.014 186.468 417.79 188.552 416.041 190.141C414.292 191.73 412.1 192.749 409.758 193.062C407.416 193.375 405.034 192.967 402.929 191.893C400.824 190.819 399.096 189.129 397.975 187.049C396.854 184.968 396.393 182.596 396.653 180.247C396.913 177.898 397.882 175.684 399.431 173.899C400.98 172.115 403.036 170.844 405.324 170.257C407.613 169.669 410.027 169.792 412.244 170.61L412.243 170.614Z" fill="#A0616A"/>
<path d="M475.008 90.4967C487.1 94.7643 489.231 141.005 489.231 141.005C475.005 133.181 457.935 145.985 457.935 145.985C457.935 145.985 454.379 133.891 450.111 118.243C448.822 113.841 448.668 109.184 449.663 104.707C450.658 100.229 452.769 96.0763 455.8 92.6344C455.8 92.6344 462.916 86.2267 475.008 90.4967Z" fill="#AF87F6"/>
<path d="M460.848 45.1878C457.457 42.4746 452.83 47.4042 452.83 47.4042L450.117 22.9916C450.117 22.9916 433.163 25.0231 422.309 22.3132C411.455 19.6032 409.761 32.1519 409.761 32.1519C409.201 27.0841 409.088 21.9769 409.422 16.8893C410.1 10.7846 418.917 4.67987 434.516 0.609801C450.116 -3.46027 458.255 14.1762 458.255 14.1762C469.112 19.5985 464.243 47.904 460.848 45.1878Z" fill="#2F2E41"/>
<path d="M302.17 17.1587C302.17 23.0889 297.565 27.8962 291.885 27.8962C286.204 27.8962 281.6 23.0889 281.6 17.1587C281.6 17.0242 281.602 16.8908 281.607 16.7575C281.711 10.8284 286.401 6.11188 292.081 6.22261C297.76 6.33334 302.278 11.2296 302.171 17.1587H302.17Z" fill="#3F7389"/>
<path d="M288.263 21.9268L285.301 17.9767L286.002 17.4501L288.416 20.6682L297.917 12.8945L298.473 13.5735L288.263 21.9268Z" fill="white"/>
<path d="M301.383 106.887C301.383 112.817 296.778 117.625 291.098 117.625C285.418 117.625 280.813 112.817 280.813 106.887C280.813 106.753 280.815 106.619 280.821 106.486C280.925 100.557 285.615 95.8404 291.294 95.9511C296.973 96.0619 301.491 100.958 301.385 106.887H301.383Z" fill="#3F7389"/>
<path d="M287.476 111.655L284.514 107.705L285.215 107.179L287.629 110.397L297.13 102.623L297.686 103.302L287.476 111.655Z" fill="white"/>
<path d="M301.383 196.616C301.383 202.546 296.778 207.353 291.098 207.353C285.418 207.353 280.813 202.546 280.813 196.616C280.813 196.481 280.815 196.348 280.821 196.214C280.925 190.285 285.615 185.569 291.294 185.68C296.973 185.79 301.491 190.687 301.385 196.616H301.383Z" fill="#3F7389"/>
<path d="M287.476 201.384L284.514 197.434L285.215 196.907L287.629 200.125L297.13 192.352L297.686 193.031L287.476 201.384Z" fill="white"/>
<path d="M11.9583 35.7461C10.9047 35.7472 9.89496 35.983 9.15063 36.4019C8.40631 36.8207 7.98828 37.3884 7.98828 37.9802C7.98828 38.572 8.40631 39.1397 9.15063 39.5585C9.89496 39.9774 10.9047 40.2132 11.9583 40.2143H302.339C303.393 40.2132 304.403 39.9774 305.147 39.5585C305.891 39.1397 306.309 38.572 306.309 37.9802C306.309 37.3884 305.891 36.8207 305.147 36.4019C304.403 35.983 303.393 35.7472 302.339 35.7461H11.9583Z" fill="white"/>
<path d="M11.9587 50.2676C10.9074 50.2671 9.89877 50.5602 9.15434 51.0828C8.40991 51.6053 7.99051 52.3144 7.98829 53.0543C7.98607 53.7943 8.40121 54.5046 9.14249 55.0293C9.88378 55.554 10.8906 55.8502 11.9419 55.8528H195.08C195.601 55.8528 196.117 55.7806 196.599 55.6402C197.08 55.4999 197.517 55.2942 197.886 55.0349C198.254 54.7756 198.547 54.4677 198.746 54.1289C198.945 53.7901 199.048 53.4269 199.048 53.0602C199.048 52.6935 198.945 52.3303 198.746 51.9915C198.547 51.6527 198.254 51.3448 197.886 51.0855C197.517 50.8262 197.08 50.6205 196.599 50.4801C196.117 50.3398 195.601 50.2676 195.08 50.2676H11.9587Z" fill="white"/>
<path d="M11.9583 125.109C10.9047 125.111 9.89496 125.406 9.15063 125.929C8.40631 126.453 7.98828 127.162 7.98828 127.902C7.98828 128.642 8.40631 129.351 9.15063 129.875C9.89496 130.398 10.9047 130.693 11.9583 130.695H302.339C303.393 130.693 304.403 130.398 305.147 129.875C305.891 129.351 306.309 128.642 306.309 127.902C306.309 127.162 305.891 126.453 305.147 125.929C304.403 125.406 303.393 125.111 302.339 125.109H11.9583Z" fill="white"/>
<path d="M11.9587 140.748C10.9074 140.748 9.89877 140.982 9.15434 141.4C8.40991 141.818 7.99051 142.385 7.98829 142.977C7.98607 143.569 8.40121 144.138 9.14249 144.557C9.88378 144.977 10.8906 145.214 11.9419 145.216H195.08C196.133 145.216 197.142 144.981 197.886 144.562C198.63 144.143 199.048 143.575 199.048 142.982C199.048 142.39 198.63 141.821 197.886 141.402C197.142 140.983 196.133 140.748 195.08 140.748H11.9587Z" fill="white"/>
<path d="M11.9583 215.59C10.9047 215.591 9.89496 215.827 9.15063 216.246C8.40631 216.664 7.98828 217.232 7.98828 217.824C7.98828 218.416 8.40631 218.983 9.15063 219.402C9.89496 219.821 10.9047 220.057 11.9583 220.058H302.339C303.393 220.057 304.403 219.821 305.147 219.402C305.891 218.983 306.309 218.416 306.309 217.824C306.309 217.232 305.891 216.664 305.147 216.246C304.403 215.827 303.393 215.591 302.339 215.59H11.9583Z" fill="white"/>
<path d="M11.9587 230.111C10.9074 230.111 9.89877 230.345 9.15434 230.763C8.40991 231.181 7.99051 231.749 7.98829 232.341C7.98607 232.933 8.40121 233.501 9.14249 233.921C9.88378 234.341 10.8906 234.577 11.9419 234.58H195.08C196.133 234.58 197.142 234.344 197.886 233.925C198.63 233.506 199.048 232.938 199.048 232.345C199.048 231.753 198.63 231.185 197.886 230.766C197.142 230.347 196.133 230.111 195.08 230.111H11.9587Z" fill="white"/>
</g>
<defs>
<clipPath id="clip0_321_615">
<rect width="581" height="439" fill="white" transform="translate(-30)"/>
</clipPath>
</defs>
</svg>

<svg width="551" height="439" fill="none" xmlns="http://www.w3.org/2000/svg"><g clip-path="url(#a)"><path d="M352.541 154.237c.544.249 1.067.54 1.564.872l49.704-21.215 1.773-13.094 19.861-.122-1.173 30.034-65.605 17.353a11.87 11.87 0 0 1-.496 1.338 11.338 11.338 0 0 1-10.74 6.519 11.343 11.343 0 1 1 5.112-21.683v-.002ZM432.666 426.385h-13.587l-6.463-52.408h20.051l-.001 52.408Z" fill="#A0616A"/><path d="M409.375 422.502h26.202v16.493h-42.7a16.498 16.498 0 0 1 16.498-16.499v.006Z" fill="#2F2E41"/><path d="m485.503 422.545-13.519 1.33-11.569-51.522 19.955-1.96 5.133 52.152Z" fill="#A0616A"/><path d="m461.937 420.967 26.071-2.569 1.617 16.417L447.14 439a16.495 16.495 0 0 1 14.797-18.033Z" fill="#2F2E41"/><path d="M436.447 65.212c15.032 0 27.218-12.187 27.218-27.22 0-15.034-12.186-27.22-27.218-27.22s-27.218 12.186-27.218 27.22c0 15.033 12.186 27.22 27.218 27.22Z" fill="#A0616A"/><path d="M416.043 415.784a4.96 4.96 0 0 1-4.893-4.101c-7.028-39.032-30.018-166.685-30.568-170.224a1.546 1.546 0 0 1-.019-.245v-9.519c0-.347.108-.685.31-.967l3.036-4.25a1.641 1.641 0 0 1 1.268-.693c17.315-.811 74.009-3.191 76.748.232 2.751 3.435 1.773 13.861 1.551 15.915l.011.214 25.473 162.915a4.997 4.997 0 0 1-4.118 5.69l-15.909 2.621a5.007 5.007 0 0 1-5.569-3.428c-4.921-15.724-21.42-68.622-27.139-89.091a.55.55 0 0 0-.964-.224.55.55 0 0 0-.123.382c.286 19.512.976 69.292 1.22 86.486l.025 1.852a5.01 5.01 0 0 1-4.536 5.028l-15.341 1.39a4.776 4.776 0 0 1-.463.017Z" fill="#2F2E41"/><path d="M419.174 75.915c-4.75 2.825-7.593 8.013-9.223 13.302a126.01 126.01 0 0 0-5.413 30.1l-1.724 30.586-21.339 81.093c18.495 15.65 29.162 12.092 54.058-.708 24.896-12.801 27.74 4.267 27.74 4.267l4.977-68.999 7.113-75.398a33.444 33.444 0 0 0-5.388-5.18 55.03 55.03 0 0 0-47.034-9.975l-3.767.912Z" fill="#AF87F6"/><path d="M412.243 170.614c.574.215 1.129.474 1.662.776l49.148-24.604.815-13.328 20.273-1.397 1.086 30.381-65.677 21.724a11.639 11.639 0 0 1-9.792 8.896 11.635 11.635 0 0 1-10.327-19.163 11.636 11.636 0 0 1 12.813-3.289l-.001.004Z" fill="#A0616A"/><path d="M475.008 90.497c12.092 4.267 14.223 50.508 14.223 50.508-14.226-7.824-31.296 4.98-31.296 4.98s-3.556-12.094-7.824-27.742a27.183 27.183 0 0 1 5.689-25.609s7.116-6.407 19.208-2.137Z" fill="#AF87F6"/><path d="M460.848 45.188c-3.391-2.713-8.018 2.216-8.018 2.216l-2.713-24.412s-16.954 2.031-27.808-.679-12.548 9.839-12.548 9.839a87.045 87.045 0 0 1-.339-15.263c.678-6.104 9.495-12.21 25.094-16.28 15.6-4.07 23.739 13.567 23.739 13.567 10.857 5.423 5.988 33.728 2.593 31.012Z" fill="#2F2E41"/><path d="M302.17 17.159c0 5.93-4.605 10.737-10.285 10.737-5.681 0-10.285-4.807-10.285-10.737 0-.135.002-.268.007-.401.104-5.93 4.794-10.646 10.474-10.535 5.679.11 10.197 5.007 10.09 10.936h-.001Z" fill="#3F7389"/><path d="m288.263 21.927-2.962-3.95.701-.527 2.414 3.218 9.501-7.773.556.678-10.21 8.354Z" fill="#fff"/><path d="M301.383 106.887c0 5.93-4.605 10.738-10.285 10.738s-10.285-4.808-10.285-10.738c0-.134.002-.268.008-.401.104-5.929 4.794-10.646 10.473-10.535 5.679.11 10.197 5.007 10.091 10.936h-.002Z" fill="#3F7389"/><path d="m287.476 111.655-2.962-3.95.701-.526 2.414 3.218 9.501-7.774.556.679-10.21 8.353Z" fill="#fff"/><path d="M301.383 196.616c0 5.93-4.605 10.737-10.285 10.737s-10.285-4.807-10.285-10.737c0-.135.002-.268.008-.402.104-5.929 4.794-10.645 10.473-10.534 5.679.11 10.197 5.007 10.091 10.936h-.002Z" fill="#3F7389"/><path d="m287.476 201.384-2.962-3.95.701-.527 2.414 3.218 9.501-7.773.556.679-10.21 8.353ZM11.958 35.746c-1.053.001-2.063.237-2.807.656-.745.419-1.163.986-1.163 1.578 0 .592.418 1.16 1.163 1.579.744.418 1.754.654 2.807.655H302.34c1.054 0 2.064-.237 2.808-.655.744-.42 1.162-.987 1.162-1.579s-.418-1.16-1.162-1.578c-.744-.419-1.754-.655-2.808-.656H11.959ZM11.959 50.268c-1.052 0-2.06.292-2.805.815-.744.522-1.163 1.231-1.166 1.971-.002.74.413 1.45 1.154 1.975.742.525 1.749.821 2.8.824H195.08c.521 0 1.037-.072 1.519-.213.481-.14.918-.346 1.287-.605.368-.26.661-.567.86-.906.199-.339.302-.702.302-1.069s-.103-.73-.302-1.069a2.963 2.963 0 0 0-.86-.905 4.369 4.369 0 0 0-1.287-.606 5.459 5.459 0 0 0-1.519-.212H11.959ZM11.958 125.109c-1.053.002-2.063.297-2.807.82-.745.524-1.163 1.233-1.163 1.973s.418 1.449 1.163 1.973c.744.523 1.754.818 2.807.82H302.34c1.054-.002 2.064-.297 2.808-.82.744-.524 1.162-1.233 1.162-1.973s-.418-1.449-1.162-1.973c-.744-.523-1.754-.818-2.808-.82H11.959ZM11.959 140.748c-1.052 0-2.06.234-2.805.652-.744.418-1.163.985-1.166 1.577-.002.592.413 1.161 1.154 1.58.742.42 1.749.657 2.8.659H195.08c1.053 0 2.062-.235 2.806-.654.744-.419 1.162-.987 1.162-1.58 0-.592-.418-1.161-1.162-1.58-.744-.419-1.753-.654-2.806-.654H11.959ZM11.958 215.59c-1.053.001-2.063.237-2.807.656-.745.418-1.163.986-1.163 1.578 0 .592.418 1.159 1.163 1.578.744.419 1.754.655 2.807.656H302.34c1.054-.001 2.064-.237 2.808-.656.744-.419 1.162-.986 1.162-1.578 0-.592-.418-1.16-1.162-1.578-.744-.419-1.754-.655-2.808-.656H11.959ZM11.959 230.111c-1.052 0-2.06.234-2.805.652-.744.418-1.163.986-1.166 1.578-.002.592.413 1.16 1.154 1.58.742.42 1.749.656 2.8.659H195.08c1.053 0 2.062-.236 2.806-.655.744-.419 1.162-.987 1.162-1.58 0-.592-.418-1.16-1.162-1.579-.744-.419-1.753-.655-2.806-.655H11.959Z" fill="#fff"/></g><defs><clipPath id="a"><path fill="#fff" transform="translate(-30)" d="M0 0h581v439H0z"/></clipPath></defs></svg>
